src/images/icon/todo3.svg

<svg width="60" height="60" viewBox="0 0 60 60" fill="none" xmlns="http://www.w3.org/2000/svg">
<path d="M36.6795 58.8271H16.992C16.992 56.2342 19.094 54.1323 21.6868 54.1323H31.9847C34.5775 54.1322 36.6795 56.2342 36.6795 58.8271Z" fill="#FEC830"/>
<path d="M31.4086 46.5164H22.2633V54.1319H31.4086V46.5164Z" fill="#D1D6DE"/>
<path d="M45.1547 7.49878H50.4135C51.5658 7.49878 52.5 8.4303 52.5 9.57933V44.3245C52.5 45.4735 51.5658 46.405 50.4135 46.405H3.2584C2.10609 46.405 1.17188 45.4735 1.17188 44.3245V9.57933C1.17188 8.4303 2.10609 7.49878 3.2584 7.49878H8.78754H45.1547Z" fill="#EBEEF2"/>
<path d="M52.5 38.905H1.17188V46.405H52.5V38.905Z" fill="#E0E0E0"/>
<path d="M22.4262 27.2668H15.0738C10.8909 27.2668 7.5 30.6578 7.5 34.8407V38.9051H30V34.8407C30 30.6578 26.6091 27.2668 22.4262 27.2668Z" fill="#FEC830"/>
<path d="M22.9467 27.2668L18.75 31.4634L14.5533 27.2668H22.9467Z" fill="white"/>
<path d="M17.5685 14.0728H23.7V17.1156C23.7 18.6939 22.4205 19.9734 20.8422 19.9734H13.8V17.8413C13.8 15.76 15.4871 14.0728 17.5685 14.0728Z" fill="#FEC830"/>
<path d="M23.7 19.9731V22.3167C23.7 25.0504 21.4837 27.2667 18.75 27.2667C16.0161 27.2667 13.8 25.0504 13.8 22.3167V19.9731H23.7Z" fill="#FFF5E0"/>
<path d="M54.1406 1.1731H37.2656C34.6768 1.1731 32.5781 3.27181 32.5781 5.8606V18.3997C32.5781 20.9884 34.6768 23.0872 37.2656 23.0872H37.7734V27.2669L41.9531 23.0872H54.1406C56.7294 23.0872 58.8281 20.9884 58.8281 18.3997V5.8606C58.8281 3.27181 56.7294 1.1731 54.1406 1.1731Z" fill="#FEC830"/>
<path d="M26.8359 41.4822C26.5277 41.4822 26.2254 41.6064 26.0074 41.8255C25.7895 42.0435 25.6641 42.3447 25.6641 42.6541C25.6641 42.9623 25.7893 43.2646 26.0074 43.4826C26.2254 43.7005 26.5277 43.8259 26.8359 43.8259C27.1441 43.8259 27.4465 43.7005 27.6643 43.4826C27.8823 43.2646 28.0078 42.9623 28.0078 42.6541C28.0078 42.3458 27.8824 42.0435 27.6643 41.8255C27.4465 41.6064 27.1441 41.4822 26.8359 41.4822Z" fill="#343434"/>
<path d="M52.5 31.4074C51.8529 31.4074 51.3281 31.932 51.3281 32.5792V37.733H31.1719V34.8405C31.1719 30.3843 27.821 26.6985 23.5072 26.1639C24.3598 25.1118 24.872 23.7732 24.872 22.3166V14.0724C24.872 13.4252 24.3472 12.9005 23.7001 12.9005H17.5686C14.8445 12.9005 12.6282 15.1168 12.6282 17.8409V22.3166C12.6282 23.7731 13.1404 25.1117 13.993 26.1639C9.67898 26.6987 6.32812 30.3844 6.32812 34.8406V37.7332H2.34375V9.57933C2.34375 9.07823 2.75402 8.67065 3.2584 8.67065H27.6172C28.2643 8.67065 28.7891 8.14601 28.7891 7.49878C28.7891 6.85155 28.2643 6.3269 27.6172 6.3269H3.2584C1.4618 6.3269 0 7.78589 0 9.57933V44.3245C0 46.1179 1.4618 47.5769 3.2584 47.5769H21.0914V52.9903C18.1351 53.2897 15.8203 55.793 15.8203 58.8269C15.8203 59.4741 16.3451 59.9988 16.9922 59.9988H36.6797C37.3268 59.9988 37.8516 59.4741 37.8516 58.8269C37.8516 55.7932 35.5368 53.2898 32.5806 52.9903V47.5769H50.4136C52.2102 47.5769 53.672 46.1179 53.672 44.3245V32.5792C53.6719 31.9321 53.1471 31.4074 52.5 31.4074ZM22.5281 22.3168C22.5281 24.4 20.8332 26.0949 18.75 26.0949C16.6668 26.0949 14.9719 24.4 14.9719 22.3168V21.145H20.8424C21.4441 21.145 22.015 21.0116 22.5282 20.774L22.5281 22.3168ZM20.1175 28.4387L18.75 29.8061L17.3825 28.4387H20.1175ZM14.9719 17.8412C14.9719 16.4094 16.1367 15.2445 17.5685 15.2445H22.5281V17.1155C22.5281 18.0451 21.7719 18.8013 20.8423 18.8013H14.9719V17.8412ZM8.67188 34.8406C8.67188 31.6289 11.0496 28.9626 14.137 28.5078L17.9212 32.292C18.1501 32.5209 18.45 32.6353 18.7499 32.6353C19.0498 32.6353 19.3496 32.5209 19.5785 32.292L23.3627 28.5078C26.4504 28.9626 28.8281 31.6289 28.8281 34.8406V37.7332H8.67188V34.8406ZM35.3073 57.655H18.3643C18.8483 56.2867 20.1548 55.3039 21.687 55.3039H22.2633H31.4087H31.9848C33.5168 55.3039 34.8233 56.2866 35.3073 57.655ZM30.2368 52.9601H23.4352V47.5769H30.2368V52.9601ZM50.4135 45.2332H3.2584C2.75402 45.2332 2.34375 44.8255 2.34375 44.3245V40.0769H51.3281V44.3245C51.3281 44.8255 50.9179 45.2332 50.4135 45.2332Z" fill="#343434"/>
<path d="M52.5 26.9929C52.1918 26.9929 51.8895 27.1183 51.6715 27.3363C51.4535 27.5554 51.3281 27.8566 51.3281 28.1648C51.3281 28.4742 51.4534 28.7753 51.6715 28.9933C51.8895 29.2125 52.1918 29.3367 52.5 29.3367C52.8082 29.3367 53.1105 29.2125 53.3284 28.9933C53.5464 28.7753 53.6719 28.4742 53.6719 28.1648C53.6719 27.8566 53.5465 27.5542 53.3284 27.3363C53.1105 27.1183 52.8082 26.9929 52.5 26.9929Z" fill="#343434"/>
<path d="M52.5 5.50903H43.7109C43.0638 5.50903 42.5391 6.03368 42.5391 6.68091C42.5391 7.32814 43.0638 7.85279 43.7109 7.85279H52.5C53.1471 7.85279 53.6719 7.32814 53.6719 6.68091C53.6719 6.03368 53.1471 5.50903 52.5 5.50903Z" fill="white"/>
<path d="M38.9062 7.85279C39.2145 7.85279 39.5168 7.7274 39.7346 7.50943C39.9526 7.29146 40.0781 6.98911 40.0781 6.68091C40.0781 6.37271 39.9527 6.07036 39.7346 5.85239C39.5168 5.63442 39.2145 5.50903 38.9062 5.50903C38.598 5.50903 38.2957 5.63442 38.0777 5.85239C37.8598 6.07036 37.7344 6.37271 37.7344 6.68091C37.7344 6.98911 37.8596 7.29146 38.0777 7.50943C38.2958 7.7274 38.598 7.85279 38.9062 7.85279Z" fill="white"/>
<path d="M52.5 10.6653H38.9062C38.2591 10.6653 37.7344 11.1899 37.7344 11.8372C37.7344 12.4844 38.2591 13.009 38.9062 13.009H52.5C53.1471 13.009 53.6719 12.4844 53.6719 11.8372C53.6719 11.1899 53.1471 10.6653 52.5 10.6653Z" fill="white"/>
<path d="M52.5 15.8215H38.9062C38.2591 15.8215 37.7344 16.3462 37.7344 16.9934C37.7344 17.6406 38.2591 18.1653 38.9062 18.1653H52.5C53.1471 18.1653 53.6719 17.6406 53.6719 16.9934C53.6719 16.3462 53.1471 15.8215 52.5 15.8215Z" fill="white"/>
<path d="M54.1406 0.0012207H37.2656C34.0348 0.0012207 31.4062 2.62974 31.4062 5.8606V18.3997C31.4062 21.4061 33.682 23.8909 36.6015 24.2217V27.2668C36.6015 27.7407 36.8871 28.1681 37.3249 28.3495C37.4699 28.4096 37.6222 28.4388 37.7732 28.4388C38.0782 28.4388 38.3779 28.3196 38.602 28.0955L42.4384 24.259H54.1406C57.3715 24.259 60 21.6305 60 18.3997V5.8606C60 2.62974 57.3715 0.0012207 54.1406 0.0012207ZM57.6562 18.3997C57.6562 20.3382 56.0791 21.9153 54.1406 21.9153H41.9531C41.6423 21.9153 41.3443 22.0388 41.1245 22.2585L38.9453 24.4377V23.0872C38.9453 22.4399 38.4205 21.9153 37.7734 21.9153H37.2656C35.3271 21.9153 33.75 20.3382 33.75 18.3997V5.8606C33.75 3.92208 35.3271 2.34497 37.2656 2.34497H54.1406C56.0791 2.34497 57.6562 3.92208 57.6562 5.8606V18.3997Z" fill="#FEC830"/>
</svg>

<svg width="60" height="60" fill="none" xmlns="http://www.w3.org/2000/svg"><path d="M36.68 58.827H16.991a4.695 4.695 0 014.695-4.695h10.298a4.695 4.695 0 014.694 4.695z" fill="#FEC830"/><path d="M31.409 46.516h-9.146v7.616h9.146v-7.616z" fill="#D1D6DE"/><path d="M45.155 7.499h5.258c1.153 0 2.087.931 2.087 2.08v34.745c0 1.15-.934 2.081-2.087 2.081H3.258a2.084 2.084 0 01-2.086-2.08V9.578c0-1.149.934-2.08 2.086-2.08h41.897z" fill="#EBEEF2"/><path d="M52.5 38.905H1.172v7.5H52.5v-7.5z" fill="#E0E0E0"/><path d="M22.426 27.267h-7.352A7.574 7.574 0 007.5 34.84v4.064H30v-4.064a7.574 7.574 0 00-7.574-7.574z" fill="#FEC830"/><path d="M22.947 27.267l-4.197 4.196-4.197-4.196h8.394z" fill="#fff"/><path d="M17.569 14.073H23.7v3.043a2.858 2.858 0 01-2.858 2.857H13.8v-2.132a3.768 3.768 0 013.768-3.768z" fill="#FEC830"/><path d="M23.7 19.973v2.344a4.95 4.95 0 01-9.9 0v-2.344h9.9z" fill="#FFF5E0"/><path d="M54.14 1.173H37.267a4.688 4.688 0 00-4.688 4.688V18.4a4.688 4.688 0 004.688 4.687h.507v4.18l4.18-4.18h12.188a4.688 4.688 0 004.687-4.687V5.86a4.688 4.688 0 00-4.687-4.687z" fill="#FEC830"/><path d="M26.836 41.482a1.176 1.176 0 00-1.172 1.172c0 .308.125.61.343.829.218.218.52.343.829.343.308 0 .61-.126.828-.343a1.18 1.18 0 00.344-.829 1.175 1.175 0 00-1.172-1.172z" fill="#343434"/><path d="M52.5 31.407c-.647 0-1.172.525-1.172 1.172v5.154H31.172v-2.892c0-4.457-3.351-8.143-7.665-8.677a6.091 6.091 0 001.365-3.847v-8.245c0-.647-.525-1.171-1.172-1.171H17.57a4.946 4.946 0 00-4.94 4.94v4.476c0 1.456.511 2.795 1.364 3.847-4.314.535-7.665 4.22-7.665 8.677v2.892H2.344V9.58c0-.5.41-.908.914-.908h24.36a1.172 1.172 0 000-2.344H3.257A3.26 3.26 0 000 9.579v34.745a3.26 3.26 0 003.258 3.253h17.833v5.413a5.875 5.875 0 00-5.27 5.837c0 .647.524 1.172 1.171 1.172H36.68c.647 0 1.172-.525 1.172-1.172a5.875 5.875 0 00-5.271-5.837v-5.413h17.833a3.26 3.26 0 003.258-3.252V32.578c0-.647-.525-1.172-1.172-1.172zm-29.972-9.09a3.782 3.782 0 01-3.778 3.778 3.782 3.782 0 01-3.778-3.778v-1.172h5.87c.602 0 1.173-.133 1.686-.371v1.543zm-2.41 6.122l-1.368 1.367-1.367-1.367h2.735zM14.971 17.84a2.6 2.6 0 012.597-2.597h4.96v1.872c0 .93-.757 1.685-1.687 1.685h-5.87v-.96zm-6.3 17c0-3.212 2.378-5.878 5.465-6.333l3.784 3.784a1.168 1.168 0 001.657 0l3.785-3.784c3.087.455 5.465 3.12 5.465 6.333v2.892H8.672v-2.892zm26.635 22.814H18.364a3.529 3.529 0 013.323-2.351H31.985c1.532 0 2.838.983 3.322 2.351zm-5.07-4.695h-6.802v-5.383h6.802v5.383zm20.177-7.727H3.258a.913.913 0 01-.914-.908v-4.248h48.984v4.248c0 .5-.41.908-.915.908zM52.5 26.993c-.308 0-.61.125-.828.343-.218.22-.344.52-.344.829a1.176 1.176 0 001.172 1.172 1.175 1.175 0 001.172-1.172c0-.308-.125-.61-.344-.829a1.18 1.18 0 00-.828-.343z" fill="#343434"/><path d="M52.5 5.509h-8.79a1.172 1.172 0 000 2.344h8.79a1.172 1.172 0 000-2.344zM38.906 7.853c.309 0 .61-.126.829-.344a1.18 1.18 0 00.343-.828c0-.308-.125-.61-.343-.829a1.18 1.18 0 00-.829-.343c-.308 0-.61.125-.828.343-.218.218-.344.52-.344.829 0 .308.126.61.344.828.218.218.52.344.828.344zM52.5 10.665H38.906a1.172 1.172 0 000 2.344H52.5a1.172 1.172 0 000-2.344zM52.5 15.822H38.906a1.172 1.172 0 000 2.343H52.5a1.172 1.172 0 000-2.343z" fill="#fff"/><path d="M54.14.001H37.267a5.866 5.866 0 00-5.86 5.86V18.4a5.868 5.868 0 005.196 5.822v3.045a1.172 1.172 0 002 .829l3.836-3.837h11.703c3.23 0 5.859-2.628 5.859-5.86V5.862C60 2.63 57.371 0 54.14 0zM57.657 18.4a3.52 3.52 0 01-3.515 3.515H41.953c-.31 0-.609.124-.829.344l-2.179 2.179v-1.35c0-.648-.525-1.173-1.172-1.173h-.507A3.52 3.52 0 0133.75 18.4V5.86a3.52 3.52 0 013.516-3.515H54.14a3.52 3.52 0 013.515 3.516V18.4z" fill="#FEC830"/></svg>
